i-home/img/icq/ipoteca.svg

<svg width="113" height="100" viewBox="0 0 113 100" fill="none" xmlns="http://www.w3.org/2000/svg">
<g clip-path="url(#clip0)">
<path d="M109 49.1C108.1 49.1 107.4 48.7 106.7 48.2C100.9 43.8 95 39.3 89.2 34.9C79 27.1 68.7 19.3 58.5 11.6C57.1 10.5 56.1 10.6 54.7 11.6C39.4 23.1 24.3 34.6 9.10001 46.1C8.20001 46.8 7.20001 47.5 6.30001 48.2C4.60001 49.5 2.40001 49.2 1.10001 47.6C-0.0999868 46 0.300013 43.8 2.00001 42.5C9.00001 37.2 16 31.8 23 26.5C32.6 19.2 42.3 11.8 51.9 4.49998C54.8 2.29998 58.1 2.29998 61 4.49998C77.6 17.2 94.3 29.8 110.9 42.5C112.1 43.4 112.7 44.6 112.4 46.2C112.1 47.6 111.2 48.6 109.8 49C109.6 49 109.3 49 109 49.1Z" fill="#FE0000"/>
<path d="M96.9 26.4C95 25 93.2 23.6 91.4 22.2C88 19.6 84.7 17.1 81.3 14.5C80.9 14.2 80.8 13.9 80.8 13.5C80.9 12.9 80.8 12.3 80.9 11.7C81.3 9.79996 82.9 8.39996 84.8 8.39996C87.5 8.39996 90.2 8.39996 92.9 8.39996C95.1 8.39996 96.9 10.2 96.9 12.4C97 17 96.9 21.5 96.9 26.1C97 26.1 97 26.2 96.9 26.4Z" fill="#FE0000"/>
<path d="M46.1 46.0999C46.1 48.5999 47.8 50.9 51.3 53V40.7C47.8 41.4 46.1 43.1999 46.1 46.0999Z" fill="#FE0000"/>
<path d="M95.8 49.4999C83.3 39.9999 70.7 30.3999 58.2 20.8999C57.3 20.1999 56.6 19.9999 55.9 20.0999C55.2 19.9999 54.5 20.1999 53.6 20.8999C41 30.3999 28.5 39.9999 16 49.4999C15 50.1999 14.6 51.0999 14.6 52.2999C14.6 63.5999 14.6 75 14.6 86.2999C14.6 92.4999 19.3 97.0999 25.5 97.0999C25.7 97.0999 25.8 97.0999 26 97.0999C26.4 97.0999 26.6 97.0999 26.8 97.0999C35 97.0999 43.2 97.0999 51.4 97.0999V94.9999C46.6 94.3999 42.6 92.7 39.3 89.8999C36.1 87.2 34.2 82.5 33.8 76H45C45 76.2999 45 76.5999 45 76.6999C45 78.7999 45.6 80.7 46.7 82.3C47.8 83.9 49.4 84.9999 51.3 85.4999V66.0999C44.8 63.0999 40.4 60.1 38.1 57.2C35.8 54.2999 34.7 51.0999 34.7 47.5999C34.7 43.3999 36.2 39.6999 39.3 36.6999C42.3 33.6999 46.3 31.9999 51.3 31.5999V29.1999H57.8V31.5999C63.1 31.9999 67.4 33.6999 70.5 36.7999C73.7 39.7999 75.2 43.6999 75.2 48.5999H63.9C63.4 43.7999 61.3 41.1999 57.8 40.7999V56L64.1 58.7999C67.6 60.3999 70.4 62.2 72.5 64.3C74.6 66.3 76.1 68.4999 76.9 70.6999C77.7 72.8999 78.1 75.1 78.1 77.4C78.1 82.3 76.3 86.4999 72.6 89.7999C68.9 93.1 64 94.8999 57.8 94.9999V97.1999C66.9 97.1999 76 97.1999 85 97.1999C85.2 97.1999 85.4 97.1999 85.8 97.1999C86 97.1999 86.2 97.1999 86.3 97.1999C92.5 97.1999 97.2 92.4999 97.2 86.3999C97.2 75.0999 97.2 63.7 97.2 52.4C97.2 51.1 96.7 50.1999 95.8 49.4999Z" fill="#FE0000"/>
<path d="M66.8 78.4C66.8 74.4 63.8 71.2 57.7 68.9V86C60.3 86 62.5 85.3 64.2 83.8C66 82.3 66.8 80.5 66.8 78.4Z" fill="#FE0000"/>
</g>
<defs>
<clipPath id="clip0">
<rect width="113" height="100" fill="white"/>
</clipPath>
</defs>
</svg>

<?xml version="1.0" encoding="utf-8"?>
<!-- Generator: Adobe Illustrator 21.0.0, SVG Export Plug-In . SVG Version: 6.00 Build 0)  -->
<svg version="1.1" id="Слой_1" xmlns="http://www.w3.org/2000/svg" xmlns:xlink="http://www.w3.org/1999/xlink" x="0px" y="0px"
	 viewBox="0 0 113 100" style="enable-background:new 0 0 113 100;" xml:space="preserve">
<style type="text/css">
	.st0{fill:#FE0000;}
</style>
<g>
	<g>
		<path class="st0" d="M109,49.1c-0.9,0-1.6-0.4-2.3-0.9c-5.8-4.4-11.7-8.9-17.5-13.3C79,27.1,68.7,19.3,58.5,11.6
			c-1.4-1.1-2.4-1-3.8,0c-15.3,11.5-30.4,23-45.6,34.5c-0.9,0.7-1.9,1.4-2.8,2.1c-1.7,1.3-3.9,1-5.2-0.6C-0.1,46,0.3,43.8,2,42.5
			c7-5.3,14-10.7,21-16c9.6-7.3,19.3-14.7,28.9-22c2.9-2.2,6.2-2.2,9.1,0c16.6,12.7,33.3,25.3,49.9,38c1.2,0.9,1.8,2.1,1.5,3.7
			c-0.3,1.4-1.2,2.4-2.6,2.8C109.6,49,109.3,49,109,49.1z"/>
		<path class="st0" d="M96.9,26.4c-1.9-1.4-3.7-2.8-5.5-4.2c-3.4-2.6-6.7-5.1-10.1-7.7c-0.4-0.3-0.5-0.6-0.5-1
			c0.1-0.6,0-1.2,0.1-1.8c0.4-1.9,2-3.3,3.9-3.3c2.7,0,5.4,0,8.1,0c2.2,0,4,1.8,4,4c0.1,4.6,0,9.1,0,13.7C97,26.1,97,26.2,96.9,26.4
			z"/>
	</g>
	<g>
		<path class="st0" d="M46.1,46.1c0,2.5,1.7,4.8,5.2,6.9V40.7C47.8,41.4,46.1,43.2,46.1,46.1z"/>
		<path class="st0" d="M95.8,49.5C83.3,40,70.7,30.4,58.2,20.9c-0.9-0.7-1.6-0.9-2.3-0.8c-0.7-0.1-1.4,0.1-2.3,0.8
			C41,30.4,28.5,40,16,49.5c-1,0.7-1.4,1.6-1.4,2.8c0,11.3,0,22.7,0,34c0,6.2,4.7,10.8,10.9,10.8c0.2,0,0.3,0,0.5,0l0,0
			c0.4,0,0.6,0,0.8,0c8.2,0,16.4,0,24.6,0V95c-4.8-0.6-8.8-2.3-12.1-5.1c-3.2-2.7-5.1-7.4-5.5-13.9H45c0,0.3,0,0.6,0,0.7
			c0,2.1,0.6,4,1.7,5.6c1.1,1.6,2.7,2.7,4.6,3.2V66.1c-6.5-3-10.9-6-13.2-8.9c-2.3-2.9-3.4-6.1-3.4-9.6c0-4.2,1.5-7.9,4.6-10.9
			c3-3,7-4.7,12-5.1v-2.4h6.5v2.4c5.3,0.4,9.6,2.1,12.7,5.2c3.2,3,4.7,6.9,4.7,11.8H63.9c-0.5-4.8-2.6-7.4-6.1-7.8V56l6.3,2.8
			c3.5,1.6,6.3,3.4,8.4,5.5c2.1,2,3.6,4.2,4.4,6.4c0.8,2.2,1.2,4.4,1.2,6.7c0,4.9-1.8,9.1-5.5,12.4S64,94.9,57.8,95v2.2
			c9.1,0,18.2,0,27.2,0c0.2,0,0.4,0,0.8,0l0,0c0.2,0,0.4,0,0.5,0c6.2,0,10.9-4.7,10.9-10.8c0-11.3,0-22.7,0-34
			C97.2,51.1,96.7,50.2,95.8,49.5z"/>
		<path class="st0" d="M66.8,78.4c0-4-3-7.2-9.1-9.5V86c2.6,0,4.8-0.7,6.5-2.2C66,82.3,66.8,80.5,66.8,78.4z"/>
	</g>
</g>
<rect x="-249.3" y="-116" class="st0" width="196.7" height="72"/>
</svg>
